X: 3346
T: Bellingham Boat
R: jig
M: 6/8
K: Gmajor
ABc|:ded cAF|AGF G2B|dcc cBB|B2A ABc|
ded cAF|AGF G2c|BdB cAF|G2A B2c:|
|:d3 def|g3 gfe|~d3 ~c3|~B3 ABc|
d^cd def|g3 gfg|afd ge^c|d2A B2c:|

